assets/img/arrows-right.svg

<svg fill="none" height="23" viewBox="0 0 56 23" width="56" xmlns="http://www.w3.org/2000/svg"><g fill="#ff903f"><path d="m9.09606 22.28h-9.0360014l13.6080414-9.828 9.072-.036zm0-21.70799 13.64404 9.82799h-9.072l-13.6080414-9.863989z"/><path d="m41.489 22.28h-9.036l13.608-9.828 9.072-.036zm0-21.70799 13.644 9.82799h-9.072l-13.608-9.863989z"/></g></svg>

<svg width="56" height="23" viewBox="0 0 56 23" fill="none" xmlns="http://www.w3.org/2000/svg">
<g style="mix-blend-mode:exclusion">
<path d="M9.09606 22.28H0.0600586L13.6681 12.452L22.7401 12.416L9.09606 22.28ZM9.09606 0.57201L22.7401 10.4H13.6681L0.0600586 0.536011L9.09606 0.57201Z" fill="#FF903F"/>
<path d="M41.489 22.28H32.453L46.061 12.452L55.133 12.416L41.489 22.28ZM41.489 0.57201L55.133 10.4H46.061L32.453 0.536011L41.489 0.57201Z" fill="#FF903F"/>
</g>
</svg>
